CN6T1/184/aimg/triste2.svg

<svg clip-rule="evenodd" fill-rule="evenodd" stroke-miterlimit="10" viewBox="0 0 215 215" xmlns="http://www.w3.org/2000/svg"><circle cx="-20.771" fill="none" r="20.771" stroke="#aae1fa" stroke-width=".98" transform="matrix(0 -4.16667 -4.16667 0 107.00469155 20.45369265)"/><g fill="#c7eafb" fill-rule="nonzero"><path d="m0 5.03c-.254 0-.508-.093-.708-.279-1.73-1.612-4.085-2.552-6.629-2.651-2.828-.106-5.52.855-7.392 2.643-.416.396-1.074.38-1.47-.035-.398-.415-.381-1.074.034-1.469 2.276-2.174 5.527-3.348 8.907-3.216 3.042.116 5.872 1.254 7.966 3.206.421.392.444 1.05.053 1.47-.204.22-.483.331-.761.331" transform="matrix(4.16667 0 0 4.16667 140.85055196 119.36627178)"/><path d="m0 5.185c-.064 0-.13-.008-.194-.028l-4.516-1.318c-.271-.08-.469-.316-.495-.598-.028-.282.119-.552.371-.683 0-.001 3.513-1.816 4.563-2.377.339-.181.758-.053.939.285.18.338.052.758-.286.939-.591.314-1.955 1.025-3.043 1.589l2.855.833c.368.107.578.492.471.859-.088.302-.364.499-.665.499" transform="matrix(4.16667 0 0 4.16667 162.15473567 93.37041765)"/><path d="m0 5.185c-.3 0-.576-.197-.665-.499-.107-.367.103-.752.472-.859l2.853-.833c-1.086-.564-2.452-1.275-3.042-1.589-.338-.181-.466-.601-.286-.939s.598-.466.939-.285c1.051.561 4.563 2.377 4.563 2.377.252.131.399.4.372.683-.027.282-.224.518-.496.598l-4.516 1.318c-.064.02-.13.028-.194.028" transform="matrix(4.16667 0 0 4.16667 56.00048408 93.37041765)"/><path d="m0 4.615c-.035 0-.07-.003-.106-.009-3.457-.532-5.193-3.336-5.264-3.456-.199-.327-.095-.752.232-.951.328-.199.753-.095.951.232.028.042 1.501 2.374 4.291 2.805.379.059.638.412.581.791-.054.343-.349.588-.685.588" transform="matrix(4.16667 0 0 4.16667 166.42140575 64.97872827)"/><path d="m0 4.616c-.336 0-.632-.245-.685-.588-.058-.379.203-.732.581-.791 2.824-.435 4.275-2.78 4.29-2.805.197-.327.623-.432.952-.232.327.199.431.624.232.951-.071.12-1.807 2.924-5.264 3.456-.036.006-.071.009-.106.009" transform="matrix(4.16667 0 0 4.16667 51.733814 64.9745616)"/></g></svg>

<?xml version="1.0" encoding="UTF-8" standalone="no"?>
<!DOCTYPE svg PUBLIC "-//W3C//DTD SVG 1.1//EN" "http://www.w3.org/Graphics/SVG/1.1/DTD/svg11.dtd">
<svg width="100%" height="100%" viewBox="0 0 215 215" version="1.1" xmlns="http://www.w3.org/2000/svg" xmlns:xlink="http://www.w3.org/1999/xlink" xml:space="preserve" xmlns:serif="http://www.serif.com/" style="fill-rule:evenodd;clip-rule:evenodd;stroke-miterlimit:10;">
    <g transform="matrix(1,0,0,1,-11444.8,-5057.96)">
        <g transform="matrix(4.16667,0,0,4.16667,10895.7,3587.6)">
            <g transform="matrix(0,-1,-1,0,157.465,357.795)">
                <circle cx="-20.771" cy="0" r="20.771" style="fill:none;stroke:rgb(170,225,250);stroke-width:0.98px;"/>
            </g>
        </g>
        <g transform="matrix(4.16667,0,0,4.16667,10895.7,3587.6)">
            <g transform="matrix(1,0,0,1,165.588,381.534)">
                <path d="M0,5.03C-0.254,5.03 -0.508,4.937 -0.708,4.751C-2.438,3.139 -4.793,2.199 -7.337,2.1C-10.165,1.994 -12.857,2.955 -14.729,4.743C-15.145,5.139 -15.803,5.123 -16.199,4.708C-16.597,4.293 -16.58,3.634 -16.165,3.239C-13.889,1.065 -10.638,-0.109 -7.258,0.023C-4.216,0.139 -1.386,1.277 0.708,3.229C1.129,3.621 1.152,4.279 0.761,4.699C0.557,4.919 0.278,5.03 0,5.03" style="fill:rgb(199,234,251);fill-rule:nonzero;"/>
            </g>
        </g>
        <g transform="matrix(4.16667,0,0,4.16667,10895.7,3587.6)">
            <g transform="matrix(1,0,0,1,170.701,375.295)">
                <path d="M0,5.185C-0.064,5.185 -0.13,5.177 -0.194,5.157L-4.71,3.839C-4.981,3.759 -5.179,3.523 -5.205,3.241C-5.233,2.959 -5.086,2.689 -4.834,2.558C-4.834,2.557 -1.321,0.742 -0.271,0.181C0.068,0 0.487,0.128 0.668,0.466C0.848,0.804 0.72,1.224 0.382,1.405C-0.209,1.719 -1.573,2.43 -2.661,2.994L0.194,3.827C0.562,3.934 0.772,4.319 0.665,4.686C0.577,4.988 0.301,5.185 0,5.185" style="fill:rgb(199,234,251);fill-rule:nonzero;"/>
            </g>
        </g>
        <g transform="matrix(4.16667,0,0,4.16667,10895.7,3587.6)">
            <g transform="matrix(1,0,0,1,145.224,375.295)">
                <path d="M0,5.185C-0.3,5.185 -0.576,4.988 -0.665,4.686C-0.772,4.319 -0.562,3.934 -0.193,3.827L2.66,2.994C1.574,2.43 0.208,1.719 -0.382,1.405C-0.72,1.224 -0.848,0.804 -0.668,0.466C-0.488,0.128 -0.07,0 0.271,0.181C1.322,0.742 4.834,2.558 4.834,2.558C5.086,2.689 5.233,2.958 5.206,3.241C5.179,3.523 4.982,3.759 4.71,3.839L0.194,5.157C0.13,5.177 0.064,5.185 0,5.185" style="fill:rgb(199,234,251);fill-rule:nonzero;"/>
            </g>
        </g>
        <g transform="matrix(4.16667,0,0,4.16667,10895.7,3587.6)">
            <g transform="matrix(1,0,0,1,171.725,368.481)">
                <path d="M0,4.615C-0.035,4.615 -0.07,4.612 -0.106,4.606C-3.563,4.074 -5.299,1.27 -5.37,1.15C-5.569,0.823 -5.465,0.398 -5.138,0.199C-4.81,0 -4.385,0.104 -4.187,0.431C-4.159,0.473 -2.686,2.805 0.104,3.236C0.483,3.295 0.742,3.648 0.685,4.027C0.631,4.37 0.336,4.615 0,4.615" style="fill:rgb(199,234,251);fill-rule:nonzero;"/>
            </g>
        </g>
        <g transform="matrix(4.16667,0,0,4.16667,10895.7,3587.6)">
            <g transform="matrix(1,0,0,1,144.2,368.48)">
                <path d="M0,4.616C-0.336,4.616 -0.632,4.371 -0.685,4.028C-0.743,3.649 -0.482,3.296 -0.104,3.237C2.72,2.802 4.171,0.457 4.186,0.432C4.383,0.105 4.809,0 5.138,0.2C5.465,0.399 5.569,0.824 5.37,1.151C5.299,1.271 3.563,4.075 0.106,4.607C0.07,4.613 0.035,4.616 0,4.616" style="fill:rgb(199,234,251);fill-rule:nonzero;"/>
            </g>
        </g>
    </g>
</svg>
